public/images/case-studies/speakinc/tech-icon5.svg

<svg width="102" height="27" viewBox="0 0 102 27" fill="none" xmlns="http://www.w3.org/2000/svg">
<g clip-path="url(#clip0)">
<path d="M2.62148 16.1287C4.06605 16.1287 5.2371 14.9527 5.2371 13.5021C5.2371 12.0515 4.06605 10.8755 2.62148 10.8755C1.17691 10.8755 0.00585938 12.0515 0.00585938 13.5021C0.00585938 14.9527 1.17691 16.1287 2.62148 16.1287Z" fill="#FF6309"/>
<path d="M21.3772 26.9999C22.8219 26.9999 23.993 25.8238 23.993 24.3731C23.993 22.9224 22.8219 21.7463 21.3772 21.7463C19.9325 21.7463 18.7614 22.9224 18.7614 24.3731C18.7614 25.8238 19.9325 26.9999 21.3772 26.9999Z" fill="#FFB515"/>
<path d="M21.3749 5.25318C22.8195 5.25318 23.9905 4.07722 23.9905 2.62659C23.9905 1.17597 22.8195 0 21.3749 0C19.9303 0 18.7593 1.17597 18.7593 2.62659C18.7593 4.07722 19.9303 5.25318 21.3749 5.25318Z" fill="#C90016"/>
<path d="M15.1249 7.00256C18.3819 7.00256 21.0841 9.4311 21.5317 12.5796H26.0128C25.809 10.1056 24.788 7.79961 23.0801 5.98116C21.9863 6.54043 20.6414 6.55117 19.499 5.88902C18.3557 5.22598 17.6924 4.05035 17.6288 2.81819C16.8078 2.62619 15.9675 2.52942 15.1246 2.52979C13.4894 2.52979 11.9092 2.88814 10.4722 3.56783L12.7161 7.47006C13.4818 7.1606 14.2996 7.00189 15.1249 7.00256Z" fill="#FF6309"/>
<path d="M8.65295 13.502C8.65295 11.4313 9.62216 9.58403 11.1287 8.39302L8.88563 4.49133C8.35429 4.86418 7.85655 5.28312 7.39814 5.74335C6.10005 7.0469 5.16914 8.62078 4.65692 10.3385C5.68902 11.0098 6.37246 12.1752 6.37246 13.502C6.37246 14.8285 5.68902 15.9941 4.65692 16.6652C5.16914 18.3829 6.10005 19.9566 7.39814 21.2605C7.85621 21.7205 8.35352 22.1393 8.88438 22.5121L11.1278 18.6099C9.62162 17.4191 8.65295 15.572 8.65295 13.502Z" fill="#FFB515"/>
<path d="M21.5318 14.4214C21.0855 17.5709 18.3828 20.0011 15.1249 20.0011C14.2736 20.0011 13.4601 19.8347 12.7152 19.5332L10.4714 23.4356C11.9081 24.1157 13.4892 24.4742 15.1247 24.4742C15.9792 24.4742 16.8189 24.3753 17.6308 24.1855C17.6933 22.9517 18.3566 21.7739 19.5008 21.1105C20.6435 20.448 21.989 20.4584 23.0827 21.0189C24.789 19.2001 25.8094 16.8945 26.0123 14.4214H21.5318Z" fill="#C90016"/>
<path d="M42.3178 13.459V8.40353C42.3178 7.63762 41.7074 7.02467 40.9447 7.02467C40.182 7.02467 39.5718 7.63744 39.5718 8.40353V13.459C39.5718 15.2972 38.8089 15.9103 37.4359 15.9103C36.0632 15.9103 35.3003 15.2972 35.3003 13.459V8.40353C35.3003 7.63762 34.6901 7.02467 33.9274 7.02467C33.1646 7.02467 32.5543 7.63744 32.5543 8.40353V13.459C32.5543 17.1356 34.6901 18.6677 37.4359 18.6677C40.182 18.6677 42.3178 17.1356 42.3178 13.459ZM55.1326 13.459C55.1326 8.25039 52.9971 7.02467 50.2511 7.02467C48.878 7.02467 48.1152 7.63744 48.1152 7.63744V4.11396C48.1152 2.27565 45.3692 2.27565 45.3692 4.11396V13.459C45.3692 17.1356 47.505 18.6677 50.2511 18.6677C52.9971 18.6677 55.1326 17.1356 55.1326 13.459ZM48.1149 13.1525C48.1149 9.93555 49.6403 9.62907 50.2507 9.62907C51.1661 9.62907 52.3862 10.3952 52.3862 13.1525C52.3862 14.9907 51.6236 16.2166 50.2507 16.2166C48.8776 16.2168 48.1149 14.9907 48.1149 13.1525ZM101.994 13.459V8.40353C101.994 7.63762 101.384 7.02467 100.621 7.02467C99.8582 7.02467 99.248 7.63744 99.248 8.40353V13.459C99.248 15.2972 98.4853 15.9103 97.1124 15.9103C95.7393 15.9103 94.9767 15.2972 94.9767 13.459V8.40353C94.9775 8.22225 94.9424 8.04262 94.8737 7.875C94.805 7.70737 94.7038 7.55508 94.5762 7.42689C94.4485 7.29871 94.2969 7.19717 94.13 7.12813C93.963 7.0591 93.7841 7.02393 93.6036 7.02467C93.4231 7.02391 93.2442 7.05906 93.0773 7.12809C92.9104 7.19711 92.7587 7.29866 92.6311 7.42685C92.5034 7.55504 92.4023 7.70735 92.3336 7.87498C92.2649 8.04262 92.2299 8.22225 92.2307 8.40353V13.459C92.2307 17.1356 94.3662 18.6677 97.1124 18.6677C99.8582 18.6677 101.994 17.1356 101.994 13.459ZM67.3202 13.4592V8.40371C67.3202 7.63779 66.7098 7.02502 65.9471 7.02502C65.1844 7.02502 64.5742 7.63779 64.5742 8.40371V13.4592C64.5742 15.2973 63.8115 15.9101 62.4384 15.9101C61.0656 15.9101 60.3027 15.2973 60.3027 13.4592V8.40371C60.3027 7.63779 59.6925 7.02502 58.9298 7.02502C58.1671 7.02502 57.5569 7.63779 57.5569 8.40371V13.4592C57.5569 17.1358 59.6925 18.6677 62.4384 18.6677C65.1844 18.6677 67.3202 17.1358 67.3202 13.4592ZM83.4342 7.02467C81.7561 7.02467 81.7561 9.47593 83.4342 9.47593H83.8919V14.8071C83.8919 17.7182 84.6087 18.6677 87.0803 18.6677C88.2703 18.6677 90.0092 18.4533 90.0092 17.2274C90.0092 16.4617 89.3076 16.2622 89.1091 16.2622C88.682 16.2622 88.2393 16.4459 87.7513 16.4459C86.897 16.4459 86.6376 16.0173 86.6376 14.5772V9.47593H87.8582C89.5363 9.47593 89.5363 7.02467 87.8582 7.02467H86.6376V4.11396C86.6376 2.27565 83.8917 2.27565 83.8917 4.11396V7.02467H83.4342ZM70.1607 12.2333V17.2888C70.1599 17.4701 70.1949 17.6497 70.2636 17.8173C70.3324 17.9849 70.4335 18.1372 70.5611 18.2654C70.6887 18.3936 70.8404 18.4952 71.0073 18.5642C71.1742 18.6332 71.3531 18.6684 71.5336 18.6677C71.7141 18.6684 71.893 18.6332 72.0599 18.5642C72.2268 18.4952 72.3785 18.3936 72.5061 18.2654C72.6337 18.1372 72.7348 17.9849 72.8036 17.8173C72.8723 17.6497 72.9073 17.4701 72.9065 17.2888V12.2333C72.9065 10.3952 73.6693 9.78204 75.0422 9.78204C76.4153 9.78204 77.178 10.3952 77.178 12.2333V17.2888C77.178 18.0547 77.7882 18.6677 78.5509 18.6677C79.3137 18.6677 79.9239 18.0549 79.9239 17.2888V12.2333C79.9239 8.55668 77.7882 7.02467 75.0422 7.02467C72.2961 7.02467 70.1607 8.55686 70.1607 12.2333Z" fill="black"/>
</g>
<defs>
<clipPath id="clip0">
<rect width="102" height="27" fill="white"/>
</clipPath>
</defs>
</svg>

<svg xmlns="http://www.w3.org/2000/svg" width="102" height="27" fill="none" xmlns:v="https://vecta.io/nano"><g clip-path="url(#A)"><path d="M2.621 16.129c1.445 0 2.616-1.176 2.616-2.627s-1.171-2.627-2.616-2.627S.006 12.052.006 13.502s1.171 2.627 2.616 2.627z" fill="#ff6309"/><path d="M21.377 27c1.445 0 2.616-1.176 2.616-2.627s-1.171-2.627-2.616-2.627-2.616 1.176-2.616 2.627S19.933 27 21.377 27z" fill="#ffb515"/><path d="M21.375 5.253c1.445 0 2.616-1.176 2.616-2.627S22.82 0 21.375 0s-2.616 1.176-2.616 2.627 1.171 2.627 2.616 2.627z" fill="#c90016"/><path d="M15.125 7.003c3.257 0 5.959 2.429 6.407 5.577h4.481a10.9 10.9 0 0 0-2.933-6.598c-1.094.559-2.439.57-3.581-.092s-1.807-1.839-1.87-3.071c-.821-.192-1.661-.289-2.504-.288a10.85 10.85 0 0 0-4.652 1.038l2.244 3.902c.766-.309 1.583-.468 2.409-.468z" fill="#ff6309"/><path d="M8.653 13.502a6.5 6.5 0 0 1 2.476-5.109L8.886 4.491a11.09 11.09 0 0 0-1.487 1.252C6.1 7.047 5.169 8.621 4.657 10.339c1.032.671 1.716 1.837 1.716 3.164s-.683 2.492-1.716 3.163c.512 1.718 1.443 3.291 2.741 4.595a11.1 11.1 0 0 0 1.486 1.252l2.243-3.902a6.5 6.5 0 0 1-2.475-5.108z" fill="#ffb515"/><path d="M21.532 14.421c-.446 3.15-3.149 5.58-6.407 5.58a6.41 6.41 0 0 1-2.41-.468l-2.244 3.902a10.85 10.85 0 0 0 4.653 1.039c.854 0 1.694-.099 2.506-.289.063-1.234.726-2.412 1.87-3.075a3.73 3.73 0 0 1 3.582-.092 10.9 10.9 0 0 0 2.93-6.597h-4.48z" fill="#c90016"/><path d="M42.318 13.459V8.404a1.37 1.37 0 1 0-2.746 0v5.055c0 1.838-.763 2.451-2.136 2.451s-2.136-.613-2.136-2.451V8.404a1.37 1.37 0 1 0-2.746 0v5.055c0 3.677 2.136 5.209 4.882 5.209s4.882-1.532 4.882-5.209zm12.815 0c0-5.209-2.135-6.434-4.881-6.434-1.373 0-2.136.613-2.136.613V4.114c0-1.838-2.746-1.838-2.746 0v9.345c0 3.677 2.136 5.209 4.882 5.209s4.881-1.532 4.881-5.209zm-7.018-.306c0-3.217 1.525-3.523 2.136-3.523.915 0 2.136.766 2.136 3.523 0 1.838-.763 3.064-2.136 3.064s-2.136-1.226-2.136-3.064zm53.879.306V8.404a1.37 1.37 0 1 0-2.746 0v5.055c0 1.838-.763 2.451-2.136 2.451s-2.136-.613-2.136-2.451V8.404a1.38 1.38 0 0 0-.103-.529c-.069-.168-.17-.32-.297-.448a1.37 1.37 0 0 0-.446-.299c-.167-.069-.346-.104-.526-.103a1.36 1.36 0 0 0-.526.103c-.167.069-.319.171-.446.299a1.37 1.37 0 0 0-.297.448 1.38 1.38 0 0 0-.103.529v5.055c0 3.677 2.136 5.209 4.882 5.209s4.882-1.532 4.882-5.209zm-34.674 0V8.404a1.37 1.37 0 1 0-2.746 0v5.055c0 1.838-.763 2.451-2.136 2.451s-2.136-.613-2.136-2.451V8.404a1.37 1.37 0 1 0-2.746 0v5.055c0 3.677 2.136 5.209 4.882 5.209s4.882-1.532 4.882-5.209zm16.114-6.435c-1.678 0-1.678 2.451 0 2.451h.458v5.331c0 2.911.717 3.861 3.188 3.861 1.19 0 2.929-.214 2.929-1.44 0-.766-.702-.965-.9-.965-.427 0-.87.184-1.358.184-.854 0-1.114-.429-1.114-1.869V9.476h1.221c1.678 0 1.678-2.451 0-2.451h-1.221V4.114c0-1.838-2.746-1.838-2.746 0v2.911h-.457zm-13.273 5.209v5.055c-.001.181.034.361.103.529s.17.32.297.448.279.23.446.299.346.104.526.104.359-.035.526-.104.319-.171.446-.299.229-.28.297-.448.104-.347.103-.529v-5.055c0-1.838.763-2.451 2.136-2.451s2.136.613 2.136 2.451v5.055a1.37 1.37 0 1 0 2.746 0v-5.055c0-3.677-2.136-5.209-4.882-5.209s-4.881 1.532-4.881 5.209z" fill="#000"/></g><defs><clipPath id="A"><path fill="#fff" d="M0 0h102v27H0z"/></clipPath></defs></svg>
